actions/24/go-last.svg

<?xml version="1.0" encoding="UTF-8" standalone="no"?>
<!-- Created with Inkscape (http://www.inkscape.org/) -->

<svg
   xmlns:svg="http://www.w3.org/2000/svg"
   xmlns="http://www.w3.org/2000/svg"
   xmlns:xlink="http://www.w3.org/1999/xlink"
   version="1.0"
   width="24"
   height="24"
   id="svg2797">
  <defs
     id="defs2799">
    <linearGradient
       x1="28.62199"
       y1="18.218788"
       x2="28.62199"
       y2="49.56282"
       id="linearGradient2529"
       xlink:href="#linearGradient4222"
       gradientUnits="userSpaceOnUse"
       gradientTransform="matrix(0.599071,0,0,0.6156931,-4.2320317,-3.9814102)" />
    <linearGradient
       id="linearGradient5113">
      <stop
         id="stop5115"
         style="stop-color:white;stop-opacity:1"
         offset="0" />
      <stop
         id="stop5117"
         style="stop-color:white;stop-opacity:0"
         offset="1" />
    </linearGradient>
    <linearGradient
       x1="11.767765"
       y1="-4.4393449"
       x2="41.116112"
       y2="-7.0000062"
       id="linearGradient3055"
       xlink:href="#linearGradient5113"
       gradientUnits="userSpaceOnUse"
       gradientTransform="matrix(0,0.6129597,0.4969311,0,25.730057,-3.9378267)" />
    <linearGradient
       id="linearGradient3166">
      <stop
         id="stop3168"
         style="stop-color:#a7cc5c;stop-opacity:1"
         offset="0" />
      <stop
         id="stop3170"
         style="stop-color:#789e2d;stop-opacity:1"
         offset="1" />
    </linearGradient>
    <linearGradient
       x1="9.9999981"
       y1="41.5"
       x2="41.999996"
       y2="41.5"
       id="linearGradient3053"
       xlink:href="#linearGradient3166"
       gradientUnits="userSpaceOnUse"
       gradientTransform="matrix(0,0.6129597,0.4969311,0,2.3742894,-3.9378267)" />
    <linearGradient
       id="linearGradient5105-262-943-861">
      <stop
         id="stop2487"
         style="stop-color:#0d0d0d;stop-opacity:1"
         offset="0" />
      <stop
         id="stop2489"
         style="stop-color:#0d0d0d;stop-opacity:0"
         offset="1" />
    </linearGradient>
    <radialGradient
       cx="11.25"
       cy="19.03125"
       r="8.0625"
       fx="11.25"
       fy="19.03125"
       id="radialGradient2795"
       xlink:href="#linearGradient5105-262-943-861"
       gradientUnits="userSpaceOnUse"
       gradientTransform="matrix(1,0,0,0.282946,0,13.64644)" />
    <linearGradient
       id="linearGradient4222">
      <stop
         id="stop4224"
         style="stop-color:white;stop-opacity:1"
         offset="0" />
      <stop
         id="stop4226"
         style="stop-color:white;stop-opacity:0"
         offset="1" />
    </linearGradient>
    <linearGradient
       x1="28.62199"
       y1="18.218788"
       x2="28.62199"
       y2="49.56282"
       id="linearGradient2793"
       xlink:href="#linearGradient4222"
       gradientUnits="userSpaceOnUse"
       gradientTransform="matrix(0.599071,0,0,0.6156931,-4.8945812,-3.9814102)" />
    <linearGradient
       id="linearGradient2264">
      <stop
         id="stop2266"
         style="stop-color:#d7e866;stop-opacity:1"
         offset="0" />
      <stop
         id="stop2268"
         style="stop-color:#8cab2a;stop-opacity:1"
         offset="1" />
    </linearGradient>
    <linearGradient
       x1="22.181572"
       y1="14.499924"
       x2="22.181572"
       y2="44.051018"
       id="linearGradient2791"
       xlink:href="#linearGradient2264"
       gradientUnits="userSpaceOnUse"
       gradientTransform="matrix(-0.5165267,0,0,0.5333212,21.794824,-0.7415553)" />
  </defs>
  <g
     id="layer1">
    <path
       d="M 10.5,3.5938361 20.017235,12 10.5,20.363535 10.5,16.5 l -9.0000001,0 0,-9 9.0000001,0 0,-3.9061639 z"
       id="path2626"
       style="opacity:0.35400008;fill:none;stroke:url(#linearGradient2529);stroke-width:1;stroke-linecap:butt;stroke-linejoin:miter;stroke-miterlimit:4;stroke-opacity:1;stroke-dasharray:none;stroke-dashoffset:0;marker:none;visibility:visible;display:inline;overflow:visible" />
    <rect
       width="21"
       height="1.9877303"
       x="1.5"
       y="21.506134"
       transform="matrix(0,1,1,0,0,0)"
       id="rect4242"
       style="fill:#b3c360;fill-opacity:1;fill-rule:nonzero;stroke:#699536;stroke-width:0.99999988;stroke-linecap:butt;stroke-linejoin:miter;stroke-miterlimit:4;stroke-opacity:1;stroke-dasharray:none;stroke-dashoffset:0;marker:none;visibility:visible;display:inline;overflow:visible" />
    <path
       d="m 22.5,2.4982493 c 0,6.3339171 0,12.6678337 0,19.0017507"
       id="rect6697"
       style="opacity:0.35400008;fill:url(#linearGradient3053);fill-opacity:1;fill-rule:nonzero;stroke:url(#linearGradient3055);stroke-width:1;stroke-linecap:square;stroke-linejoin:miter;stroke-miterlimit:4;stroke-opacity:1;stroke-dasharray:none;stroke-dashoffset:0;marker:none;visibility:visible;display:inline;overflow:visible" />
    <path
       d="m 19.3125,19.03125 a 8.0625,2.28125 0 1 1 -16.125,0 8.0625,2.28125 0 1 1 16.125,0 z"
       transform="matrix(1.4061954,0,0,1.3667076,-3.8196983,-5.1279557)"
       id="path2767"
       style="opacity:0.16292138;fill:url(#radialGradient2795);fill-opacity:1;fill-rule:nonzero;stroke:none;stroke-width:1;marker:none;visibility:visible;display:inline;overflow:visible" />
    <g
       transform="translate(-0.3374506,0)"
       id="g2787"
       style="display:inline">
      <path
         d="M 9.8374505,1.4884489 21.849003,12.026409 9.8374505,22.511552 l 0,-5.011552 -9.0115515,0 0,-11 9.0115515,0 0,-5.0115511 z"
         id="path2769"
         style="fill:url(#linearGradient2791);fill-opacity:1;fill-rule:nonzero;stroke:#699536;stroke-width:0.97689688;stroke-linecap:round;stroke-linejoin:round;stroke-miterlimit:4;stroke-opacity:1;stroke-dasharray:none;stroke-dashoffset:0;marker:none;visibility:visible;display:inline;overflow:visible" />
      <path
         d="M 10.83745,3.5938361 20.354686,12 l -9.517236,8.363535 0,-3.863535 -8.9999995,0 0,-9 8.9999995,0 0,-3.9061639 z"
         id="path2771"
         style="opacity:0.35400008;fill:none;stroke:url(#linearGradient2793);stroke-width:1;stroke-linecap:butt;stroke-linejoin:miter;stroke-miterlimit:4;stroke-opacity:1;stroke-dasharray:none;stroke-dashoffset:0;marker:none;visibility:visible;display:inline;overflow:visible" />
    </g>
  </g>
</svg>

<?xml version="1.0" encoding="UTF-8" standalone="no"?>
<!-- Created with Inkscape (http://www.inkscape.org/) -->
<svg
   xmlns:dc="http://purl.org/dc/elements/1.1/"
   xmlns:cc="http://creativecommons.org/ns#"
   xmlns:rdf="http://www.w3.org/1999/02/22-rdf-syntax-ns#"
   xmlns:svg="http://www.w3.org/2000/svg"
   xmlns="http://www.w3.org/2000/svg"
   xmlns:xlink="http://www.w3.org/1999/xlink"
   xmlns:sodipodi="http://sodipodi.sourceforge.net/DTD/sodipodi-0.dtd"
   xmlns:inkscape="http://www.inkscape.org/namespaces/inkscape"
   width="24"
   height="24"
   id="svg2797"
   sodipodi:version="0.32"
   inkscape:version="0.46"
   version="1.0"
   sodipodi:docname="go-last.svg"
   inkscape:output_extension="org.inkscape.output.svg.inkscape">
  <defs
     id="defs2799">
    <linearGradient
       inkscape:collect="always"
       xlink:href="#linearGradient4222"
       id="linearGradient2529"
       gradientUnits="userSpaceOnUse"
       gradientTransform="matrix(0.599071,0,0,0.6156931,-4.2320317,-3.9814102)"
       x1="28.62199"
       y1="18.218788"
       x2="28.62199"
       y2="49.56282" />
    <linearGradient
       inkscape:collect="always"
       id="linearGradient5113">
      <stop
         style="stop-color:white;stop-opacity:1;"
         offset="0"
         id="stop5115" />
      <stop
         style="stop-color:white;stop-opacity:0;"
         offset="1"
         id="stop5117" />
    </linearGradient>
    <linearGradient
       inkscape:collect="always"
       xlink:href="#linearGradient5113"
       id="linearGradient3055"
       gradientUnits="userSpaceOnUse"
       gradientTransform="matrix(0,0.6129597,0.4969311,0,25.730057,-3.9378267)"
       x1="11.767765"
       y1="-4.4393449"
       x2="41.116112"
       y2="-7.0000062" />
    <linearGradient
       id="linearGradient3166">
      <stop
         style="stop-color:#a7cc5c;stop-opacity:1;"
         offset="0"
         id="stop3168" />
      <stop
         style="stop-color:#789e2d;stop-opacity:1;"
         offset="1"
         id="stop3170" />
    </linearGradient>
    <linearGradient
       inkscape:collect="always"
       xlink:href="#linearGradient3166"
       id="linearGradient3053"
       gradientUnits="userSpaceOnUse"
       gradientTransform="matrix(0,0.6129597,0.4969311,0,2.3742894,-3.9378267)"
       x1="9.9999981"
       y1="41.5"
       x2="41.999996"
       y2="41.5" />
    <linearGradient
       inkscape:collect="always"
       id="linearGradient5105-262-943-861">
      <stop
         offset="0"
         id="stop2487"
         style="stop-color:#0d0d0d;stop-opacity:1;" />
      <stop
         offset="1"
         id="stop2489"
         style="stop-color:#0d0d0d;stop-opacity:0;" />
    </linearGradient>
    <radialGradient
       inkscape:collect="always"
       xlink:href="#linearGradient5105-262-943-861"
       id="radialGradient2795"
       gradientUnits="userSpaceOnUse"
       gradientTransform="matrix(1,0,0,0.282946,0,13.64644)"
       cx="11.25"
       cy="19.03125"
       fx="11.25"
       fy="19.03125"
       r="8.0625" />
    <linearGradient
       inkscape:collect="always"
       id="linearGradient4222">
      <stop
         style="stop-color:#ffffff;stop-opacity:1;"
         offset="0"
         id="stop4224" />
      <stop
         style="stop-color:#ffffff;stop-opacity:0;"
         offset="1"
         id="stop4226" />
    </linearGradient>
    <linearGradient
       inkscape:collect="always"
       xlink:href="#linearGradient4222"
       id="linearGradient2793"
       gradientUnits="userSpaceOnUse"
       gradientTransform="matrix(0.599071,0,0,0.6156931,-4.8945812,-3.9814102)"
       x1="28.62199"
       y1="18.218788"
       x2="28.62199"
       y2="49.56282" />
    <linearGradient
       id="linearGradient2264">
      <stop
         style="stop-color:#d7e866;stop-opacity:1;"
         offset="0"
         id="stop2266" />
      <stop
         style="stop-color:#8cab2a;stop-opacity:1;"
         offset="1"
         id="stop2268" />
    </linearGradient>
    <linearGradient
       inkscape:collect="always"
       xlink:href="#linearGradient2264"
       id="linearGradient2791"
       gradientUnits="userSpaceOnUse"
       gradientTransform="matrix(-0.5165267,0,0,0.5333212,21.794824,-0.7415553)"
       x1="22.181572"
       y1="14.499924"
       x2="22.181572"
       y2="44.051018" />
  </defs>
  <sodipodi:namedview
     id="base"
     pagecolor="#ffffff"
     bordercolor="#666666"
     borderopacity="1.0"
     inkscape:pageopacity="0.0"
     inkscape:pageshadow="2"
     inkscape:zoom="11.197802"
     inkscape:cx="16"
     inkscape:cy="16"
     inkscape:current-layer="layer1"
     showgrid="true"
     inkscape:grid-bbox="true"
     inkscape:document-units="px"
     inkscape:window-width="640"
     inkscape:window-height="720"
     inkscape:window-x="800"
     inkscape:window-y="24" />
  <metadata
     id="metadata2802">
    <rdf:RDF>
      <cc:Work
         rdf:about="">
        <dc:format>image/svg+xml</dc:format>
        <dc:type
           rdf:resource="http://purl.org/dc/dcmitype/StillImage" />
      </cc:Work>
    </rdf:RDF>
  </metadata>
  <g
     id="layer1"
     inkscape:label="Layer 1"
     inkscape:groupmode="layer">
    <path
       id="path2626"
       d="M 10.5,3.5938361 L 20.017235,12 L 10.5,20.363535 L 10.5,16.5 L 1.4999999,16.5 L 1.4999999,7.5 L 10.5,7.5 L 10.5,3.5938361 z"
       style="display:inline;opacity:0.35400002000000003;fill:none;fill-opacity:1;fill-rule:nonzero;stroke:url(#linearGradient2529);stroke-width:1;stroke-linecap:butt;stroke-linejoin:miter;marker:none;marker-start:none;marker-mid:none;marker-end:none;stroke-miterlimit:4;stroke-dasharray:none;stroke-dashoffset:0;stroke-opacity:1;visibility:visible;overflow:visible"
       sodipodi:nodetypes="cccccccc" />
    <rect
       style="display:inline;fill:#b3c360;fill-opacity:1;fill-rule:nonzero;stroke:#699536;stroke-width:0.99999987999999995;stroke-linecap:butt;stroke-linejoin:miter;marker:none;marker-start:none;marker-mid:none;marker-end:none;stroke-miterlimit:4;stroke-dasharray:none;stroke-dashoffset:0;stroke-opacity:1;visibility:visible;overflow:visible"
       id="rect4242"
       width="21"
       height="1.9877303"
       x="1.5"
       y="21.506134"
       transform="matrix(0,1,1,0,0,0)" />
    <path
       style="display:inline;opacity:0.35400002000000003;fill:url(#linearGradient3053);fill-opacity:1;fill-rule:nonzero;stroke:url(#linearGradient3055);stroke-width:1;stroke-linecap:square;stroke-linejoin:miter;marker:none;marker-start:none;marker-mid:none;marker-end:none;stroke-miterlimit:4;stroke-dasharray:none;stroke-dashoffset:0;stroke-opacity:1;visibility:visible;overflow:visible"
       d="M 22.5,2.4982493 C 22.5,8.8321664 22.5,15.166083 22.5,21.5"
       id="rect6697"
       sodipodi:nodetypes="cc" />
    <path
       id="path2767"
       sodipodi:cx="11.25"
       sodipodi:cy="19.03125"
       transform="matrix(1.4061954,0,0,1.3667076,-3.8196983,-5.1279557)"
       d="M 19.3125,19.03125 A 8.0625,2.28125 0 1 1 3.1875,19.03125 A 8.0625,2.28125 0 1 1 19.3125,19.03125 z"
       sodipodi:type="arc"
       style="display:inline;opacity:0.16292138000000000;fill:url(#radialGradient2795);fill-opacity:1;fill-rule:nonzero;stroke:none;stroke-width:1;stroke-linecap:butt;stroke-linejoin:miter;marker:none;marker-start:none;marker-mid:none;marker-end:none;stroke-miterlimit:4;stroke-dasharray:none;stroke-dashoffset:0;stroke-opacity:1;visibility:visible;overflow:visible"
       sodipodi:ry="2.28125"
       sodipodi:rx="8.0625" />
    <g
       style="display:inline"
       id="g2787"
       transform="translate(-0.3374506,0)">
      <path
         sodipodi:nodetypes="cccccccc"
         style="fill:url(#linearGradient2791);fill-opacity:1;fill-rule:nonzero;stroke:#699536;stroke-width:0.97689688;stroke-linecap:round;stroke-linejoin:round;marker:none;marker-start:none;marker-mid:none;marker-end:none;stroke-miterlimit:4;stroke-dasharray:none;stroke-dashoffset:0;stroke-opacity:1;visibility:visible;display:inline;overflow:visible"
         d="M 9.8374505,1.4884489 L 21.849003,12.026409 L 9.8374505,22.511552 L 9.8374505,17.5 L 0.825899,17.5 L 0.825899,6.5 L 9.8374505,6.5 L 9.8374505,1.4884489 z"
         id="path2769" />
      <path
         sodipodi:nodetypes="cccccccc"
         style="opacity:0.35400002;fill:none;fill-opacity:1;fill-rule:nonzero;stroke:url(#linearGradient2793);stroke-width:1;stroke-linecap:butt;stroke-linejoin:miter;marker:none;marker-start:none;marker-mid:none;marker-end:none;stroke-miterlimit:4;stroke-dasharray:none;stroke-dashoffset:0;stroke-opacity:1;visibility:visible;display:inline;overflow:visible"
         d="M 10.83745,3.5938361 L 20.354686,12 L 10.83745,20.363535 L 10.83745,16.5 L 1.8374505,16.5 L 1.8374505,7.5 L 10.83745,7.5 L 10.83745,3.5938361 z"
         id="path2771" />
    </g>
  </g>
</svg>
